icons/linear-ele-communication-phone-mobile-2.svg

<svg xmlns="http://www.w3.org/2000/svg" width="32px" height="32px" viewBox="0 0 32 32" version="1.1">
    <title>linear-ele-communication-phone-mobile-2</title>
    <g id="linear-ele-communication-phone-mobile-2" stroke-width="1" fill-rule="evenodd">
        <path d="M23,1 C25.209139,1 27,2.790861 27,5 L27,27 C27,29.209139 25.209139,31 23,31 L9,31 C6.790861,31 5,29.209139 5,27 L5,5 C5,2.790861 6.790861,1 9,1 L23,1 Z M25,23 L7,23 L7,27 C7,28.1045695 7.8954305,29 9,29 L23,29 C24.1045695,29 25,28.1045695 25,27 L25,23 Z M16,24.5 C16.8284271,24.5 17.5,25.1715729 17.5,26 C17.5,26.8284271 16.8284271,27.5 16,27.5 C15.1715729,27.5 14.5,26.8284271 14.5,26 C14.5,25.1715729 15.1715729,24.5 16,24.5 Z M23,3 L9,3 C7.8954305,3 7,3.8954305 7,5 L7,21 L25,21 L25,5 C25,3.8954305 24.1045695,3 23,3 Z" id="&#24418;&#29366;" fill-rule="nonzero" />
    </g>
</svg>

<svg xmlns="http://www.w3.org/2000/svg" viewBox="0 0 32 32"><path fill="currentColor" d="M23 1a4 4 0 0 1 4 4v22a4 4 0 0 1-4 4H9a4 4 0 0 1-4-4V5a4 4 0 0 1 4-4zm2 22H7v4a2 2 0 0 0 2 2h14a2 2 0 0 0 2-2zm-9 1.5a1.5 1.5 0 1 1 0 3 1.5 1.5 0 0 1 0-3M23 3H9a2 2 0 0 0-2 2v16h18V5a2 2 0 0 0-2-2"/></svg>
